X:97
T:King Wm. Waltz. Le4.097
M:3/4
L:1/8
Q:1/4=120
B:L.Leadley MS#4 c1850
Z:Village Music Project, 2016 Ruairidh Greig
K:D
A,>A,|D4A,>D|F4D>F|A4F>A|d4a2|
afd'c'ba|gfedcB|(A2B2)c2|d4:|
|:A2|e3dcB|ABcdef|g3fed|cdefga|
bagfef|gfedcd|edcBA^G|ABA=GFE|
D4A,>D|F4D>F|A4F>A|d2z2a2|
af^dBba|gfedcB|ABAGFE|D4H:|
|:A2|A4A2|(A2d2e2)|f4a2|(d2c2)d2|
.f2.e2.d2|.c2.B2.A2|dcdefd|A4A2|
A4A2|(A2d2e2)|f4a2|(d2c2)d2|
.f2.e2.d2|.c2.B2.A2|(e2d2)d2|d4:|
|:f2|f4e2|(d2c2)B2|B4e2|g4f2|
.f2.e2.d2|.c2.B2.A2|A4d2|f2z2A2|
A4A2|(A2d2)e2|f4a2|(d2c2)d2|
.f2.e2.d2|.c2.B2.A2|(e2d2)d2|"D.C."d4|]

